X:1
T:Pax Tecum, 10.10
T:Pax Tecum, 10.10
T:George T. Caldbeck & Charles J. Vincent, 1876
T:Public Domain Courtesy of the Cyber Hymnal™
C:George T. Caldbeck & Charles J. Vincent, 1876
Z:Public Domain
Z:Courtesy of the Cyber Hymnal™
%%score ( 1 2 ) ( 3 4 )
L:1/8
Q:1/4=115
M:4/4
K:C
V:1 treble 
V:2 treble 
V:3 bass 
V:4 bass 
V:1
 [EG]4 [FG]2 [FG]2 | [EG]6 [EG]2 | [FA]2 [FA]2 [FA]2 [FG]2 | G6 [EG]2 | [Fc]4 [^Fd]4 | %5
 [Ge]2 [Gd]2 [Gc]2 [FA]2 | [EG]4 (G2 F2) | [CE]8 |] %8
V:2
 x8 | x8 | x8 | (F4 E2) x2 | x8 | x8 | x4 D4 | x8 |] %8
V:3
 [C,C]4 (B,C) [G,D]2 | [C,C]6 [C,C]2 | [F,C]2 D2 [B,,D]2 [B,,D]2 | [C,C]6 [B,_C]2 | %4
 [A,C]4 [_A,C]4 | [G,C]2 [F,C]2 [E,C]2 [F,C]2 | [G,C]4 [G,,B,]4 | [C,G,]8 |] %8
V:4
 x4 G,2 x2 | x8 | x2 (D,C,) x4 | x8 | x8 | x8 | x8 | x8 |] %8

